X:60
T:Monaghan Jig, The
S:irtrad-l, Phil Sexton, 11/97
R:double jig
D:Mary Bergin "Fedoga Stain"
Z:By Phil Sexton
M:6/8
L:1/8
K:Edor
BGE ~E3|BGE FGA|BGE ~E3|AFD FGA|
BGE ~E3|BGE FGA|dcB A{c}AG|FDF AFD|
BGE ~E3|BGE FGA|BGE dBG|AFD FGA|
BGE ~E3|BGE FGA|dzB ABA|FDF AFD|]
EGB e{a}eg|fed edc|DFA dAG|FDF AFD|
EGB ezg|fed edc|dcB A{c}AG|FDF AFD|
EGB ezg|fed edc|DFA dAG|FDF AFD|
EGB ezg|fed edc|dcB cBA|FDF AFD|]
~g3 ezf|geg bge|fg{a}g ~e3|{a}fed dfa|
~g3 ezf|geg bge|dcB A{c}AG|FDF AFD|
~g3 ~e3|gza bge|~g3 ~e3|fed afd|
~g3 ezf|geg {c}bge|dcB cAG|FED AFD||:
EGB eBG|BGE ~F3|ez2 BGE|~F3 AFD|
EGB GBd|Bdg egb|fed ABG|FDF AFD:|
